X: 1
T: Daniel's Mandola
M: 2/4
L: 1/8
R: polka
K: Gmaj
|:D|G>A BG|AF ED|B/c/d BG|AB A2|d>c BG|
A/B/A/G/ FD|1EB AD|E2 E:|2EG GF|G2 G2||
d>c Bd|cB AB/A/|GA BG|c2 BA|Bd GB|
Ac FD|1EB AD|E2 ED:|2EG GF|G2 G||
